src/assets/img/warning.svg

<svg width="26" height="26" viewBox="0 0 26 26" fill="none" xmlns="http://www.w3.org/2000/svg">
<path d="M13.4753 0.5C6.57199 0.5 0.950684 6.1213 0.950684 13.0247C0.950684 19.928 6.57199 25.5493 13.4753 25.5493C20.3787 25.5493 26 19.928 26 13.0247C26 6.1213 20.3787 0.5 13.4753 0.5ZM14.856 21.999C14.4615 22.3442 14.0177 22.5414 13.4753 22.5414C12.9329 22.5414 12.4891 22.3442 12.0947 21.999C11.7002 21.6538 11.503 21.1607 11.503 20.5197C11.503 19.9773 11.7002 19.5335 12.0947 19.1391C12.4891 18.7446 12.9329 18.5473 13.5246 18.5473C14.0671 18.5473 14.5602 18.7446 14.9546 19.1391C15.3491 19.5335 15.5463 19.9773 15.5463 20.5197C15.4477 21.1607 15.2505 21.6538 14.856 21.999ZM15.3491 8.34024L14.7574 14.8491C14.7081 15.6381 14.5602 16.2298 14.3629 16.6243C14.1657 17.0187 13.8205 17.2653 13.3767 17.2653C12.8836 17.2653 12.5878 17.068 12.3905 16.6736C12.1933 16.2791 12.0947 15.6381 11.996 14.8491L11.5523 8.53747C11.4536 7.30473 11.4536 6.41716 11.4536 5.87475C11.4536 5.13511 11.6509 4.5927 12.0454 4.14892C12.4398 3.75444 12.9329 3.5572 13.574 3.5572C14.3136 3.5572 14.856 3.80375 15.1026 4.34615C15.3491 4.88856 15.497 5.6282 15.497 6.6144C15.4477 7.1568 15.4477 7.74852 15.3491 8.34024Z" fill="#E61C40"/>
</svg>

<svg xmlns="http://www.w3.org/2000/svg" width="26" height="26" fill="none"><path fill="#E61C40" d="M13.475.5C6.572.5.951 6.121.951 13.025c0 6.903 5.621 12.524 12.524 12.524C20.38 25.55 26 19.928 26 13.025 26 6.12 20.379.5 13.475.5Zm1.381 21.499c-.395.345-.838.542-1.38.542-.543 0-.987-.197-1.381-.542-.395-.345-.592-.838-.592-1.48 0-.542.197-.985.592-1.38a1.897 1.897 0 0 1 1.43-.592c.542 0 1.035.198 1.43.592.394.395.591.838.591 1.38-.098.642-.295 1.135-.69 1.48Zm.493-13.659-.592 6.51c-.049.788-.197 1.38-.394 1.774-.197.395-.543.641-.986.641-.493 0-.79-.197-.987-.591-.197-.395-.295-1.036-.394-1.825l-.444-6.312c-.098-1.232-.098-2.12-.098-2.662 0-.74.197-1.282.591-1.726.395-.395.888-.592 1.529-.592.74 0 1.282.247 1.529.79.246.542.394 1.281.394 2.267-.05.543-.05 1.135-.148 1.726Z"/></svg>
